src/ui/assets/svg/ic_video_enhancement_24px.svg

<svg width="24" height="24" xmlns="http://www.w3.org/2000/svg">

 <g>
  <title>background</title>
  <rect fill="none" id="canvas_background" height="343" width="835" y="-1" x="-1"/>
 </g>
 <g>
  <title>Layer 1</title>
  <path id="svg_1" d="m0,0l24,0l0,24l-24,0l0,-24z" fill="none"/>
  <path fill="#ffffff" id="svg_2" d="m20,8.69l0,-4.69l-4.69,0l-3.31,-3.31l-3.31,3.31l-4.69,0l0,4.69l-3.31,3.31l3.31,3.31l0,4.69l4.69,0l3.31,3.31l3.31,-3.31l4.69,0l0,-4.69l3.31,-3.31l-3.31,-3.31zm-2,5.79l0,3.52l-3.52,0l-2.48,2.48l-2.48,-2.48l-3.52,0l0,-3.52l-2.48,-2.48l2.48,-2.48l0,-3.52l3.52,0l2.48,-2.48l2.48,2.48l3.52,0l0,3.52l2.48,2.48l-2.48,2.48zm-6,-7.98l0,11c3.03,0 5.5,-2.47 5.5,-5.5s-2.47,-5.5 -5.5,-5.5z"/>
 </g>
</svg>

<svg xmlns="http://www.w3.org/2000/svg" viewBox="0 0 24 24"><path d="M0 0h24v24H0V0z" fill="none"/><path fill="#FFFFFF" d="M20 8.69V4h-4.69L12 .69 8.69 4H4v4.69L.69 12 4 15.31V20h4.69L12 23.31 15.31 20H20v-4.69L23.31 12 20 8.69zm-2 5.79V18h-3.52L12 20.48 9.52 18H6v-3.52L3.52 12 6 9.52V6h3.52L12 3.52 14.48 6H18v3.52L20.48 12 18 14.48zM12 6v12c3.31 0 6-2.69 6-6s-2.69-6-6-6z"/></svg>
